images/default/question.svg

<svg height="24" viewBox="0 0 24 24" width="24" xmlns="http://www.w3.org/2000/svg"><g fill="none" fill-rule="evenodd"><path d="m0 0h24v24h-24z"/><circle cx="12" cy="12" fill="#a3b4cc" r="12"/><path d="m9.046875 9.71289062c.07519531-1.4765625 1.0595703-2.65234374 2.9804688-2.65234374 1.7226562 0 2.8984374 1.06640624 2.8984374 2.47460937 0 1.07324215-.5537109 1.83203125-1.4287109 2.35839845-.8681641.5126953-1.1142578.8955078-1.1142578 1.6132812v.444336h-1.1962891v-.6289063c-.0068359-.9023437.4306641-1.5175781 1.3671875-2.078125.7929688-.4853515 1.100586-.9160156 1.100586-1.64746091 0-.84765625-.65625-1.46972657-1.6748047-1.46972657-1.0322266 0-1.6884766.60839844-1.7636719 1.5859375zm2.8300781 7.41015628c-.5537109 0-.9501953-.3964844-.9501953-.9501953 0-.5605469.3964844-.9570313.9501953-.9570313.553711 0 .9433594.3964844.9433594.9570313 0 .5537109-.3896484.9501953-.9433594.9501953z" fill="#fff" stroke="#fff" stroke-width=".2"/></g></svg>

<?xml version="1.0" encoding="UTF-8"?>
<svg width="24px" height="24px" viewBox="0 0 24 24" version="1.1" xmlns="http://www.w3.org/2000/svg" xmlns:xlink="http://www.w3.org/1999/xlink">
    <!-- Generator: Sketch 49.3 (51167) - http://www.bohemiancoding.com/sketch -->
    <title>question</title>
    <desc>Created with Sketch.</desc>
    <defs></defs>
    <g id="☁️-cloud" stroke="none" stroke-width="1" fill="none" fill-rule="evenodd">
        <g id="cloud" transform="translate(-280.000000, -3034.000000)">
            <g id="faqs" transform="translate(256.000000, 2786.000000)">
                <g id="questions-left" transform="translate(0.000000, 224.000000)">
                    <g id="question-open">
                        <g id="question" transform="translate(24.000000, 24.000000)">
                            <rect id="Rectangle" x="0" y="0" width="24" height="24"></rect>
                            <circle id="Oval" fill="#A3B4CC" cx="12" cy="12" r="12"></circle>
                            <path d="M9.046875,9.71289062 C9.12207031,8.23632812 10.1064453,7.06054688 12.0273438,7.06054688 C13.75,7.06054688 14.9257812,8.12695312 14.9257812,9.53515625 C14.9257812,10.6083984 14.3720703,11.3671875 13.4970703,11.8935547 C12.6289062,12.40625 12.3828125,12.7890625 12.3828125,13.5068359 L12.3828125,13.9511719 L11.1865234,13.9511719 L11.1865234,13.3222656 C11.1796875,12.4199219 11.6171875,11.8046875 12.5537109,11.2441406 C13.3466797,10.7587891 13.6542969,10.328125 13.6542969,9.59667969 C13.6542969,8.74902344 12.9980469,8.12695312 11.9794922,8.12695312 C10.9472656,8.12695312 10.2910156,8.73535156 10.2158203,9.71289062 L9.046875,9.71289062 Z M11.8769531,17.1230469 C11.3232422,17.1230469 10.9267578,16.7265625 10.9267578,16.1728516 C10.9267578,15.6123047 11.3232422,15.2158203 11.8769531,15.2158203 C12.4306641,15.2158203 12.8203125,15.6123047 12.8203125,16.1728516 C12.8203125,16.7265625 12.4306641,17.1230469 11.8769531,17.1230469 Z" id="?" stroke="#FFFFFF" stroke-width="0.2" fill="#FFFFFF"></path>
                        </g>
                    </g>
                </g>
            </g>
        </g>
    </g>
</svg>
